X: 183
M: 6/8
L: 1/8
K: D
|: a |\
a<fa a<fb | b<gb b<ga | a<fa a>gf | e2e e2f/g/ |\
a3 f3 | e>de f<dB | AFA (f/g/a)f | d2d d2 :|

